assets/svgs/brand.svg

<svg viewBox="0 0 226 49" fill="none" xmlns="http://www.w3.org/2000/svg">
<path d="M133.39 11.5447L123.605 20.085L113.82 11.5447C113.038 10.8584 112.029 10.4771 110.99 10.4771H102.485L118.547 24.4924L102.485 38.5076H110.99C112.029 38.5076 113.038 38.1264 113.82 37.4401L123.605 28.8998L133.39 37.4401C134.173 38.1264 135.181 38.5076 136.22 38.5076H144.725L128.663 24.4924L144.725 10.4771H136.22C135.181 10.4771 134.173 10.8584 133.39 11.5447Z" fill="#1E1D48"/>
<path d="M226 10.4771H219.527V30.0588L195.577 11.3922C194.824 10.7974 193.891 10.4771 192.927 10.4771H188.276V38.5229H194.749V18.9412L218.699 37.6078C219.452 38.2026 220.385 38.5229 221.348 38.5229H226V10.4771Z" fill="#1E1D48"/>
<path d="M182.45 16.4553V10.4771H151.485C148.097 14.427 146.291 19.3224 146.291 24.4924C146.291 29.6623 148.097 34.573 151.485 38.5076H182.45V32.5447H154.691C153.923 31.0806 153.366 29.4488 153.08 27.4815H180.222V21.2135H153.125C153.426 19.3834 153.968 17.8279 154.691 16.4401H182.45V16.4553Z" fill="#1E1D48"/>
<path d="M101.522 24.5083C101.522 16.0594 96.4034 10.493 96.4034 10.493H67.3348C67.3348 10.493 62.2166 16.0747 62.2166 24.5083C62.2166 32.9418 67.3348 38.5235 67.3348 38.5235H96.4034C96.4034 38.5235 101.522 32.9418 101.522 24.5083ZM70.6918 32.5148C69.3821 30.1052 68.6897 27.3449 68.6897 24.5083C68.6897 21.6716 69.3821 18.9113 70.6918 16.5017H93.0615C94.3711 18.9113 95.0636 21.6716 95.0636 24.5083C95.0636 27.3449 94.3711 30.1052 93.0615 32.5148H70.6918Z" fill="#1E1D48"/>
<path d="M24.1761 48.9848C37.5282 48.9848 48.3522 38.0191 48.3522 24.4924C48.3522 10.9656 37.5282 0 24.1761 0C10.824 0 0 10.9656 0 24.4924C0 38.0191 10.824 48.9848 24.1761 48.9848Z" fill="#1E1D48"/>
<path d="M10.1762 12.2767L24.1761 24.4924L38.191 12.2767H10.1762Z" fill="#12C7BA"/>
<path d="M38.191 36.7233L24.1761 24.4924L10.1762 36.7233H38.191Z" fill="#12C7BA"/>
</svg>

<svg viewBox="0 0 226 49" fill="none" xmlns="http://www.w3.org/2000/svg"><path d="m133.39 11.545-9.785 8.54-9.785-8.54a4.299 4.299 0 0 0-2.83-1.068h-8.505l16.062 14.015-16.062 14.016h8.505a4.299 4.299 0 0 0 2.83-1.068l9.785-8.54 9.785 8.54a4.3 4.3 0 0 0 2.83 1.068h8.505l-16.062-14.016 16.062-14.015h-8.505a4.3 4.3 0 0 0-2.83 1.068ZM226 10.477h-6.473V30.06l-23.95-18.667a4.27 4.27 0 0 0-2.65-.915h-4.651v28.046h6.473V18.94l23.95 18.667a4.27 4.27 0 0 0 2.649.915H226V10.477ZM182.45 16.455v-5.978h-30.965c-3.388 3.95-5.194 8.845-5.194 14.015s1.806 10.081 5.194 14.016h30.965v-5.963h-27.759c-.768-1.464-1.325-3.096-1.611-5.064h27.142v-6.268h-27.097c.301-1.83.843-3.385 1.566-4.773h27.759v.015ZM101.522 24.508c0-8.449-5.119-14.015-5.119-14.015H67.335s-5.118 5.582-5.118 14.015c0 8.434 5.118 14.015 5.118 14.015h29.068s5.119-5.581 5.119-14.015Zm-30.83 8.007c-1.31-2.41-2.002-5.17-2.002-8.007 0-2.836.692-5.597 2.002-8.006h22.37c1.31 2.41 2.002 5.17 2.002 8.006 0 2.837-.693 5.597-2.002 8.007h-22.37ZM24.176 48.985c13.352 0 24.176-10.966 24.176-24.493C48.352 10.966 37.528 0 24.176 0 10.824 0 0 10.966 0 24.492 0 38.02 10.824 48.985 24.176 48.985Z" fill="#1E1D48"/><path d="m10.176 12.277 14 12.215 14.015-12.215H10.176ZM38.191 36.723l-14.015-12.23-14 12.23h28.015Z" fill="#12C7BA"/></svg>
